assets/img/braze_icons/face-id.svg

<svg fill="none" height="24" viewBox="0 0 24 24" width="24" xmlns="http://www.w3.org/2000/svg"><g clip-rule="evenodd" fill="#801ed7" fill-rule="evenodd"><path d="m7.7587 2h.2413c.55229 0 1 .44772 1 1 0 .55229-.44771 1-1 1h-.2c-.85658 0-1.43887.00078-1.88896.03755-.43842.03582-.66262.10075-.81902.18044-.37632.19174-.68229.49771-.87403.87403-.07969.1564-.14462.3806-.18044.81902-.03677.45009-.03755 1.03238-.03755 1.88896v.2c0 .55229-.44771 1-1 1-.55228 0-1-.44771-1-1v-.2413c-.00001-.80497-.00002-1.46933.04419-2.01053.04593-.56209.14449-1.0788.39178-1.56413.3835-.75265.99542-1.36457 1.74807-1.74807.48533-.24729 1.00204-.34585 1.56413-.39178.5412-.04421 1.20556-.0442 2.01053-.04419z"/><path d="m3 15c.55229 0 1 .4477 1 1v.2c0 .8566.00078 1.4389.03755 1.889.03582.4384.10075.6626.18044.819.19174.3763.49771.6823.87403.874.1564.0797.3806.1446.81902.1805.45009.0367 1.03238.0375 1.88896.0375h.2c.55229 0 1 .4477 1 1s-.44771 1-1 1h-.2413c-.80497 0-1.46933 0-2.01053-.0442-.56209-.0459-1.0788-.1445-1.56413-.3918-.75265-.3835-1.36457-.9954-1.74807-1.748-.24729-.4854-.34585-1.0021-.39178-1.5642-.04421-.5412-.0442-1.2055-.04419-2.0105 0-.0137 0-.0275 0-.0413v-.2c0-.5523.44772-1 1-1z"/><path d="m18.089 4.03755c-.4501-.03677-1.0324-.03755-1.889-.03755h-.2c-.5523 0-1-.44771-1-1 0-.55228.4477-1 1-1h.2.0413c.805-.00001 1.4693-.00002 2.0105.04419.5621.04593 1.0788.14449 1.5642.39178.7526.3835 1.3645.99542 1.748 1.74807.2473.48533.3459 1.00204.3918 1.56413.0442.5412.0442 1.20556.0442 2.01053v.2413c0 .55229-.4477 1-1 1s-1-.44771-1-1v-.2c0-.85658-.0008-1.43887-.0375-1.88896-.0359-.43842-.1008-.66262-.1805-.81902-.1917-.37632-.4977-.68229-.874-.87403-.1564-.07969-.3806-.14462-.819-.18044z"/><path d="m21 15c.5523 0 1 .4477 1 1v.2413c0 .805 0 1.4693-.0442 2.0105-.0459.5621-.1445 1.0788-.3918 1.5642-.3835.7526-.9954 1.3645-1.748 1.748-.4854.2473-1.0021.3459-1.5642.3918-.5412.0442-1.2055.0442-2.0105.0442h-.2413c-.5523 0-1-.4477-1-1s.4477-1 1-1h.2c.8566 0 1.4389-.0008 1.889-.0375.4384-.0359.6626-.1008.819-.1805.3763-.1917.6823-.4977.874-.874.0797-.1564.1446-.3806.1805-.819.0367-.4501.0375-1.0324.0375-1.889v-.2c0-.5523.4477-1 1-1z"/><path d="m7.5 7c.55229 0 1 .44772 1 1v1.5c0 .5523-.44771 1-1 1-.55228 0-1-.4477-1-1v-1.5c0-.55228.44772-1 1-1z"/><path d="m16.5 7c.5523 0 1 .44772 1 1v1.5c0 .5523-.4477 1-1 1s-1-.4477-1-1v-1.5c0-.55228.4477-1 1-1z"/><path d="m12.5 7c.5523 0 1 .44772 1 1v3.1001c0 1.3523-1.1477 2.5-2.5 2.5-.5523 0-1-.4477-1-1s.4477-1 1-1c.2477 0 .5-.2523.5-.5v-3.1001c0-.55228.4477-1 1-1z"/><path d="m7.99309 14.4928c.39052-.3905 1.02369-.3905 1.41421 0 1.4095 1.4095 3.6763 1.4095 5.0858 0 .3905-.3905 1.0237-.3905 1.4142 0 .3905.3906.3905 1.0237 0 1.4143-2.1905 2.1905-5.7237 2.1905-7.91421 0-.39052-.3906-.39052-1.0237 0-1.4143z"/></g></svg>

<svg width="24" height="24" viewBox="0 0 24 24" fill="none" xmlns="http://www.w3.org/2000/svg">
<path fill-rule="evenodd" clip-rule="evenodd" d="M7.7587 2L8 2C8.55229 2 9 2.44772 9 3C9 3.55229 8.55229 4 8 4H7.8C6.94342 4 6.36113 4.00078 5.91104 4.03755C5.47262 4.07337 5.24842 4.1383 5.09202 4.21799C4.7157 4.40973 4.40973 4.7157 4.21799 5.09202C4.1383 5.24842 4.07337 5.47262 4.03755 5.91104C4.00078 6.36113 4 6.94342 4 7.8V8C4 8.55229 3.55229 9 3 9C2.44772 9 2 8.55229 2 8L2 7.7587C1.99999 6.95373 1.99998 6.28937 2.04419 5.74817C2.09012 5.18608 2.18868 4.66937 2.43597 4.18404C2.81947 3.43139 3.43139 2.81947 4.18404 2.43597C4.66937 2.18868 5.18608 2.09012 5.74817 2.04419C6.28937 1.99998 6.95373 1.99999 7.7587 2Z" fill="#801ED7"/>
<path fill-rule="evenodd" clip-rule="evenodd" d="M3 15C3.55229 15 4 15.4477 4 16V16.2C4 17.0566 4.00078 17.6389 4.03755 18.089C4.07337 18.5274 4.1383 18.7516 4.21799 18.908C4.40973 19.2843 4.7157 19.5903 5.09202 19.782C5.24842 19.8617 5.47262 19.9266 5.91104 19.9625C6.36113 19.9992 6.94342 20 7.8 20H8C8.55229 20 9 20.4477 9 21C9 21.5523 8.55229 22 8 22H7.7587C6.95373 22 6.28937 22 5.74817 21.9558C5.18608 21.9099 4.66937 21.8113 4.18404 21.564C3.43139 21.1805 2.81947 20.5686 2.43597 19.816C2.18868 19.3306 2.09012 18.8139 2.04419 18.2518C1.99998 17.7106 1.99999 17.0463 2 16.2413C2 16.2276 2 16.2138 2 16.2V16C2 15.4477 2.44772 15 3 15Z" fill="#801ED7"/>
<path fill-rule="evenodd" clip-rule="evenodd" d="M18.089 4.03755C17.6389 4.00078 17.0566 4 16.2 4H16C15.4477 4 15 3.55229 15 3C15 2.44772 15.4477 2 16 2H16.2C16.2138 2 16.2276 2 16.2413 2C17.0463 1.99999 17.7106 1.99998 18.2518 2.04419C18.8139 2.09012 19.3306 2.18868 19.816 2.43597C20.5686 2.81947 21.1805 3.43139 21.564 4.18404C21.8113 4.66937 21.9099 5.18608 21.9558 5.74817C22 6.28937 22 6.95373 22 7.7587V8C22 8.55229 21.5523 9 21 9C20.4477 9 20 8.55229 20 8V7.8C20 6.94342 19.9992 6.36113 19.9625 5.91104C19.9266 5.47262 19.8617 5.24842 19.782 5.09202C19.5903 4.7157 19.2843 4.40973 18.908 4.21799C18.7516 4.1383 18.5274 4.07337 18.089 4.03755Z" fill="#801ED7"/>
<path fill-rule="evenodd" clip-rule="evenodd" d="M21 15C21.5523 15 22 15.4477 22 16V16.2413C22 17.0463 22 17.7106 21.9558 18.2518C21.9099 18.8139 21.8113 19.3306 21.564 19.816C21.1805 20.5686 20.5686 21.1805 19.816 21.564C19.3306 21.8113 18.8139 21.9099 18.2518 21.9558C17.7106 22 17.0463 22 16.2413 22H16C15.4477 22 15 21.5523 15 21C15 20.4477 15.4477 20 16 20H16.2C17.0566 20 17.6389 19.9992 18.089 19.9625C18.5274 19.9266 18.7516 19.8617 18.908 19.782C19.2843 19.5903 19.5903 19.2843 19.782 18.908C19.8617 18.7516 19.9266 18.5274 19.9625 18.089C19.9992 17.6389 20 17.0566 20 16.2V16C20 15.4477 20.4477 15 21 15Z" fill="#801ED7"/>
<path fill-rule="evenodd" clip-rule="evenodd" d="M7.5 7C8.05229 7 8.5 7.44772 8.5 8V9.5C8.5 10.0523 8.05229 10.5 7.5 10.5C6.94772 10.5 6.5 10.0523 6.5 9.5V8C6.5 7.44772 6.94772 7 7.5 7Z" fill="#801ED7"/>
<path fill-rule="evenodd" clip-rule="evenodd" d="M16.5 7C17.0523 7 17.5 7.44772 17.5 8V9.5C17.5 10.0523 17.0523 10.5 16.5 10.5C15.9477 10.5 15.5 10.0523 15.5 9.5V8C15.5 7.44772 15.9477 7 16.5 7Z" fill="#801ED7"/>
<path fill-rule="evenodd" clip-rule="evenodd" d="M12.5 7C13.0523 7 13.5 7.44772 13.5 8V11.1001C13.5 12.4524 12.3523 13.6001 11 13.6001C10.4477 13.6001 10 13.1524 10 12.6001C10 12.0478 10.4477 11.6001 11 11.6001C11.2477 11.6001 11.5 11.3478 11.5 11.1001V8C11.5 7.44772 11.9477 7 12.5 7Z" fill="#801ED7"/>
<path fill-rule="evenodd" clip-rule="evenodd" d="M7.99309 14.4928C8.38361 14.1023 9.01678 14.1023 9.4073 14.4928C10.8168 15.9023 13.0836 15.9023 14.4931 14.4928C14.8836 14.1023 15.5168 14.1023 15.9073 14.4928C16.2978 14.8834 16.2978 15.5165 15.9073 15.9071C13.7168 18.0976 10.1836 18.0976 7.99309 15.9071C7.60257 15.5165 7.60257 14.8834 7.99309 14.4928Z" fill="#801ED7"/>
</svg>
